; HEADER_BLOCK_START
; generated by OrcaSlicer 2.3.1 on 2025-11-22 at 03:10:58
; total layer number: 50
; filament_density: 1.25
; filament_diameter: 1.75
; max_z_height: 10.00
; HEADER_BLOCK_END

; THUMBNAIL_BLOCK_START

;
; THUMBNAIL_BLOCK_END

; external perimeters extrusion width = 0.42mm
; perimeters extrusion width = 0.45mm
; infill extrusion width = 0.45mm
; solid infill extrusion width = 0.42mm
; top infill extrusion width = 0.42mm
; first layer extrusion width = 0.50mm

; EXECUTABLE_BLOCK_START
EXCLUDE_OBJECT_DEFINE NAME=text-to-svg-1763777343275_id_0_copy_0 CENTER=129,129 POLYGON=[[101.014,129.199],[101.054,128.129],[101.173,127.052],[101.373,125.969],[101.652,124.877],[102.438,122.71],[103.539,120.548],[125.268,119.356],[126.447,119.298],[154.46,120.548],[155.55,122.68],[156.339,124.838],[156.619,125.909],[156.82,126.995],[156.943,128.093],[156.986,129.199],[156.901,130.864],[156.665,132.515],[156.287,134.206],[155.776,135.863],[155.199,137.3],[154.46,138.702],[103.54,138.702],[102.835,137.369],[102.229,135.863],[101.721,134.208],[101.34,132.519],[101.1,130.867],[101.014,129.199]]
M106 S0
M106 P2 S0
;TYPE:Custom
;;===== date: 20240520 =====================
;printer_model:Elegoo Centauri Carbon
;initial_filament:PLA
;curr_bed_type:Textured PEI Plate
M400 ; wait for buffer to clear
M220 S100 ;Set the feed speed to 100%
M221 S100 ;Set the flow rate to 100%
M104 S140
M140 S60
G90
G28 ;home
M729 ;Clean Nozzle
M106 P2 S255
M190 S60
M106 P2 S0


;=============turn on fans to prevent PLA jamming=================

    
    M106 P3 S255
    ;Prevent PLA from jamming


;enable_pressure_advance:false
;This value is called if pressure advance is enabled

M204 S5000 ;Call exterior wall print acceleration

ROOT
M8802
G1 X128.5 Y-1.2 F20000
G1 Z0.3 F900
M109 S210
M83
G92 E0 ;Reset Extruder
G1 F6000 
G1 X-1.2 E10.156 ;Draw the first line
G1 Y98.8 E7.934
G1 X-0.5 Y100 E0.1
G1 Y-0.3 E7.934
G1 X78.5 E6.284
G1 F1680 
G1 X98.5 E2
G1 F8400 
G1 X118.5 E2
G1 F1680 
G1 X138.5 E2
G1 F8400 
G1 X158.5 E2
G1 F8400 
G1 X178.5 E2
;End PA test.


G3 I-1 J0 Z0.6 F1200.0 ;Move to side a little
G1 F20000
G92 E0 ;Reset Extruder
SET_PRINT_STATS_INFO TOTAL_LAYER=50
;LAYER_COUNT:50
;LAYER:0
G90
G21
M83 ; use relative distances for extrusion
; filament start gcode
M106 P3 S200


M106 P2 S0
;LAYER_CHANGE
;Z:0.2
;HEIGHT:0.2
;BEFORE_LAYER_CHANGE
;0.2
G92 E0

G1 E-.8 F1800
SET_PRINT_STATS_INFO CURRENT_LAYER=1
;_SET_FAN_SPEED_CHANGING_LAYER
SET_VELOCITY_LIMIT ACCEL=500
EXCLUDE_OBJECT_START NAME=text-to-svg-1763777343275_id_0_copy_0
G1 X155.204 Y134.084 F30000
G1 Z.6
G1 Z.2
G1 E.8 F1800
;TYPE:Inner wall
;WIDTH:0.5
G1 F3000
G1 X155.586 Y132.348 E.06622
G1 X155.812 Y130.731 E.06084
G1 X155.889 Y129.199 E.05713
G1 X155.821 Y127.847 E.0504
G1 X155.628 Y126.511 E.05026
G1 X155.295 Y125.107 E.05376
G1 X155.558 Y125.042 E.0101
G1 X155.83 Y126.085 E.04017
G3 X156.178 Y129.194 I-15.947 J3.358 E.1167
G1 X156.097 Y130.787 E.05938
G1 X155.871 Y132.369 E.05955
G1 X155.459 Y134.152 E.06813
G1 X155.243 Y134.095 E.00831
G1 E-.728 F1800
;WIPE_START
G1 F30000
G1 X155.474 Y132.917 E-.072
;WIPE_END
G1 X153.164 Y138.352 Z.6
G1 Z.2
G1 E.8 F1800
;TYPE:Outer wall
G1 F3000
G1 X153.693 Y137.183 E.0478
G1 X154.292 Y135.557 E.06455
G1 X154.771 Y133.927 E.06326
G1 X155.136 Y132.267 E.06331
G1 X155.357 Y130.687 E.05942
G1 X155.431 Y129.199 E.05552
G1 X155.366 Y127.891 E.04875
G1 X155.179 Y126.597 E.0487
G1 X154.839 Y125.165 E.05481
G2 X154.245 Y123.385 I-21.591 J6.211 E.06994
G1 X153.158 Y120.898 E.10108
G1 X154.246 Y120.898 E.04053
G1 X154.375 Y121.151 E.01058
G1 X155.229 Y122.821 E.06985
G1 X156.004 Y124.943 E.08416
G3 X156.636 Y129.197 I-14.324 J4.299 E.16074
G1 X156.552 Y130.831 E.06093
G1 X156.321 Y132.452 E.06099
G1 X155.948 Y134.116 E.06354
G1 X155.446 Y135.746 E.06351
G1 X154.881 Y137.152 E.05645
G1 X154.249 Y138.352 E.05051
G1 X153.204 Y138.352 E.03891
G1 X153.81 Y138.124 F30000
;TYPE:Gap infill
;WIDTH:0.624148
G1 F3000
G1 X154.169 Y137.389 E.03872
;WIDTH:0.641053
G1 X154.279 Y137.145 E.01303
;WIDTH:0.674888
G1 X154.379 Y136.92 E.01269
;WIDTH:0.70904
G1 X154.83 Y135.747 E.06823
;WIDTH:0.749855
G2 X155.264 Y134.337 I-16.582 J-5.872 E.08503
G1 E-.728 F1800
;WIPE_START
G1 F30000
G1 X154.912 Y135.484 E-.072
;WIPE_END
G1 X155.228 Y127.858 Z.6
G1 X155.352 Y124.857 Z.6
G1 Z.2
G1 E.8 F1800
;WIDTH:0.715752
G1 F3000
G2 X154.712 Y123.046 I-31.489 J10.117 E.10534
;WIDTH:0.694178
G1 X154.453 Y122.5 E.0321
;WIDTH:0.657602
G1 X154.194 Y121.953 E.0303
;WIDTH:0.621027
G1 X153.935 Y121.406 E.02849
;WIDTH:0.580494
G1 X153.949 Y121.384 E.00114
;WIDTH:0.517789
G3 X154.12 Y121.152 I1.311 J.787 E.01116
G1 E-.78272 F1800
;WIPE_START
G1 F30000
G1 X153.949 Y121.384 E-.01728
;WIPE_END
G1 X150.326 Y128.102 Z.6
G1 X145.934 Y136.246 Z.6
G1 Z.2
G1 E.8 F1800
;TYPE:Outer wall
;WIDTH:0.5
G1 F3000
G1 X145.472 Y135.651 E.02806
G1 X145.258 Y135.141 E.02057
G1 X145.191 Y134.595 E.0205
G1 X145.261 Y134.048 E.02052
G1 X145.472 Y133.549 E.02018
G1 X145.802 Y133.126 E.02
G1 X146.229 Y132.798 E.02007
G1 X146.734 Y132.587 E.02037
G1 X147.289 Y132.517 E.02083
G1 X147.836 Y132.587 E.02054
G1 X148.335 Y132.798 E.02017
G1 X148.758 Y133.126 E.01995
G1 X149.086 Y133.55 E.01995
G1 X149.297 Y134.048 E.02017
G1 X149.367 Y134.595 E.02053
G1 X149.312 Y135.044 E.01686
G1 X148.135 Y135.044 E.04382
G1 X147.398 Y135.569 E.0337
G1 X145.97 Y136.229 E.05859
G1 E-.728 F1800
;WIPE_START
G1 F30000
G1 X145.472 Y135.651 E-.0458
G1 X145.303 Y135.248 E-.0262
;WIPE_END
G1 X146.647 Y137.043 Z.6
G1 Z.2
G1 E.8 F1800
;TYPE:Inner wall
G1 F3000
G1 X146.631 Y137.041 E.00061
G1 X145.936 Y136.748 E.02808
G1 X147.628 Y135.966 E.06942
G1 X148.281 Y135.501 E.02985
G1 X149.601 Y135.501 E.04918
G1 X149.448 Y135.868 E.0148
G1 X149.05 Y136.385 E.0243
G1 X148.537 Y136.786 E.02425
G1 X147.937 Y137.041 E.02426
G1 X147.288 Y137.124 E.02438
G1 X146.687 Y137.048 E.02256
G1 E-.728 F1800
;WIPE_START
G1 F30000
G1 X146.631 Y137.041 E-.00339
G1 X145.936 Y136.748 E-.04524
G1 X146.29 Y136.584 E-.02338
;WIPE_END
G1 X144.895 Y136.542 Z.6
G1 Z.2
G1 E.8 F1800
;TYPE:Outer wall
G1 F3000
G1 X144.4 Y135.375 E.04722
G1 X144.3 Y134.596 E.02926
G1 X144.4 Y133.824 E.02899
G1 X144.706 Y133.108 E.02898
G1 X145.18 Y132.502 E.02866
G1 X145.79 Y132.033 E.02866
G1 X146.511 Y131.733 E.0291
G1 X147.297 Y131.637 E.02948
G1 X147.68 Y131.685 E.01438
G1 X148.058 Y131.733 E.01421
G1 X148.772 Y132.033 E.02884
G1 X149.378 Y132.502 E.02852
G1 X149.847 Y133.107 E.02853
G1 X150.15 Y133.824 E.02897
G1 X150.248 Y134.596 E.029
G1 X150.15 Y135.375 E.02926
G1 X149.846 Y136.099 E.02924
G1 X149.377 Y136.71 E.02867
G1 X148.771 Y137.183 E.02865
G1 X148.058 Y137.486 E.02885
G1 X147.288 Y137.584 E.0289
G1 X146.512 Y137.486 E.02917
G1 X145.791 Y137.183 E.02913
G1 X145.604 Y137.038 E.00881
G1 X145.033 Y137.195 E.02205
G1 X143.92 Y137.376 E.04199
G1 X142.793 Y137.431 E.04205
G1 X141.67 Y137.376 E.04187
G1 X140.562 Y137.195 E.04182
G1 X139.598 Y136.929 E.03726
G1 X138.668 Y136.561 E.03723
G1 X137.87 Y136.134 E.03373
G2 X136.821 Y135.453 I-23.489 J35.008 E.04661
G3 X136.338 Y134.944 I1.496 J-1.901 E.02619
G3 X137.435 Y135.008 I.07 J8.24 E.04095
G2 X138.192 Y135.568 I8.883 J-11.211 E.03508
G1 X139.448 Y136.152 E.05158
G1 X141.009 Y136.589 E.06037
G2 X143.702 Y136.717 I1.846 J-10.448 E.10069
G1 X144.855 Y136.548 E.04342
G1 X144.962 Y136.869 F30000
;TYPE:Gap infill
;WIDTH:0.266495
G1 F3000
G1 X143.739 Y137.05 E.02252
G3 X139.71 Y136.593 I-.928 J-9.805 E.0744
G3 X138.816 Y136.244 I1.752 J-5.81 E.01752
;WIDTH:0.26077
G3 X138.036 Y135.854 I3.132 J-7.248 E.01549
;WIDTH:0.241399
G2 X137.56 Y135.526 I-7.024 J9.688 E.00935
;WIDTH:0.27033
G3 X137.094 Y135.201 I9.9 J-14.662 E.01052
G1 E-.76593 F1800
;WIPE_START
G1 F30000
G1 X137.56 Y135.526 E-.03407
;WIPE_END
G1 X144.962 Y136.869 Z.6
G1 Z.2
G1 E.8 F1800
;WIDTH:0.231113
G1 F3000
G2 X145.374 Y136.759 I-.146 J-1.366 E.00656
G1 X145.557 Y136.672 F30000
;WIDTH:0.588687
G1 F3000
G1 X145.443 Y136.478 E.00997
;WIDTH:0.569247
G1 X145.33 Y136.285 E.00961
;WIDTH:0.530367
G1 X145.216 Y136.092 E.0089
;WIDTH:0.491488
G1 X145.103 Y135.898 E.00819
;WIDTH:0.461769
G3 X144.83 Y135.259 I25.37 J-11.198 E.02374
G3 X144.749 Y134.621 I8.293 J-1.384 E.02195
G3 X144.83 Y133.941 I19.594 J2.004 E.02336
G3 X145.08 Y133.351 I6.722 J2.493 E.02189
G3 X145.49 Y132.815 I17.897 J13.309 E.02303
G3 X145.987 Y132.433 I5.724 J6.919 E.0214
G3 X146.624 Y132.161 I6.365 J14.003 E.02364
G3 X147.263 Y132.08 I1.669 J10.72 E.02199
G3 X147.625 Y132.119 I.066 J1.096 E.01247
G1 X147.923 Y132.157 E.01025
G3 X148.549 Y132.415 I-7.489 J19.109 E.02313
G3 X149.048 Y132.799 I-4.262 J6.049 E.0215
G3 X149.466 Y133.33 I-14.16 J11.567 E.02307
G3 X149.711 Y133.907 I-9.85 J4.525 E.0214
G3 X149.807 Y134.596 I-13.687 J2.254 E.02375
G3 X149.723 Y135.273 I-11.694 J-1.109 E.02328
G1 E-.728 F1800
;WIPE_START
G1 F30000
G1 X149.807 Y134.596 E-.04091
G1 X149.736 Y134.083 E-.03109
;WIPE_END
G1 X148.818 Y136.276 Z.6
G1 Z.2
G1 E.8 F1800
;TYPE:Bottom surface
;WIDTH:0.544025
G1 F6300
G1 X148.306 Y135.764 E.02958
G1 E-.75654 F1800
;WIPE_START
G1 F30000
G1 X148.818 Y136.276 E-.04346
;WIPE_END
G1 X147.905 Y136.468 Z.6
G1 Z.2
G1 E.8 F1800
;TYPE:Gap infill
;WIDTH:0.619834
G1 F3000
G1 X147.5 Y136.585 E.01981
;WIDTH:0.585563
G1 X147.095 Y136.701 E.01864
;WIDTH:0.568428
G1 X146.69 Y136.818 E.01805
G1 E-.77471 F1800
;WIPE_START
G1 F30000
G1 X147.095 Y136.701 E-.02529
;WIPE_END
G1 X140.42 Y133 Z.6
G1 X128.174 Y126.21 Z.6
G1 Z.2
G1 E.8 F1800
;TYPE:Inner wall
;WIDTH:0.5
G1 F3000
G1 X128.537 Y125.4 E.03306
G1 X129.045 Y124.774 E.03003
G1 X129.224 Y124.646 E.0082
G1 X129.389 Y124.803 E.00849
G1 X128.728 Y125.816 E.04504
G1 X128.63 Y126.21 E.01513
G1 X128.214 Y126.21 E.01549
G1 E-.728 F1800
;WIPE_START
G1 F30000
G1 X128.537 Y125.4 E-.05232
G1 X128.744 Y125.145 E-.01968
;WIPE_END
G1 X132.872 Y131.565 Z.6
G1 X133.732 Y132.903 Z.6
G1 Z.2
G1 E.8 F1800
G1 F3000
G1 X134.361 Y132.131 E.03706
G1 X134.745 Y131.216 E.03698
G1 X134.945 Y130.238 E.03716
G2 X134.943 Y127.411 I-15.792 J-1.405 E.10544
G1 X134.745 Y126.454 E.0364
G1 X134.361 Y125.538 E.03701
G1 X133.71 Y124.729 E.03866
G1 X133.883 Y124.555 E.00916
G1 X134.174 Y124.788 E.01389
G3 X135.059 Y126.051 I-2.855 J2.941 E.05777
G1 X135.408 Y127.188 E.04428
G1 X135.521 Y128.4 E.04535
G1 X135.521 Y129.232 E.031
G1 X135.409 Y130.455 E.04572
G1 X135.059 Y131.6 E.04462
G3 X133.906 Y133.078 I-3.284 J-1.374 E.07062
G1 X133.761 Y132.931 E.0077
G1 E-.728 F1800
;WIPE_START
G1 F30000
G1 X134.361 Y132.131 E-.06
G1 X134.438 Y131.947 E-.012
;WIPE_END
G1 X131.907 Y133.841 Z.6
G1 Z.2
G1 E.8 F1800
G1 F3000
G1 X131.907 Y137.013 E.11815
G1 X131.354 Y137.013 E.0206
G1 X131.354 Y133.66 E.12488
G2 X131.907 Y133.637 I.102 J-4.152 E.02063
G1 X131.907 Y133.801 E.00611
G1 X132.364 Y134.18 F30000
;TYPE:Outer wall
G1 F3000
G1 X132.364 Y137.47 E.12254
G1 X130.897 Y137.47 E.05465
G1 X130.897 Y133.203 E.15893
G2 X132.083 Y133.167 I.323 J-8.893 E.04421
G1 X132.578 Y133.055 E.01894
G1 X133.019 Y132.862 E.01791
G1 X133.402 Y132.585 E.0176
G1 X133.965 Y131.894 E.03321
G1 X134.306 Y131.08 E.03286
G1 X134.491 Y130.177 E.03433
G2 X134.489 Y127.473 I-15.195 J-1.344 E.10084
G1 X134.306 Y126.59 E.0336
G1 X133.964 Y125.774 E.03296
G1 X133.403 Y125.077 E.03331
G1 X133.021 Y124.796 E.01769
G1 X132.58 Y124.6 E.01797
G2 X131.027 Y124.477 I-1.104 J4.082 E.05834
G1 X130.53 Y124.617 E.01923
G1 X130.075 Y124.861 E.01923
G1 X129.671 Y125.206 E.0198
G1 X129.153 Y126.001 E.03534
G1 X128.987 Y126.667 E.02556
G1 X127.654 Y126.667 E.04965
G1 X127.763 Y126.01 E.02481
G1 X128.144 Y125.158 E.03476
G1 X128.729 Y124.439 E.03453
G1 X129.498 Y123.885 E.03532
G1 X130.477 Y123.519 E.03891
G1 X131.549 Y123.408 E.04016
G1 X132.212 Y123.434 E.02471
G1 X132.849 Y123.558 E.02418
G1 X133.46 Y123.778 E.02418
G1 X134.031 Y124.087 E.02418
G3 X135.484 Y125.88 I-2.34 J3.383 E.08712
G1 X135.859 Y127.098 E.04748
G1 X135.978 Y128.379 E.04789
G1 X135.978 Y129.253 E.03258
G1 X135.859 Y130.543 E.04825
G1 X135.484 Y131.771 E.04783
G3 X132.924 Y134.072 I-3.684 J-1.526 E.13256
G1 X132.404 Y134.173 E.01973
G1 X132.136 Y133.692 F30000
;TYPE:Gap infill
;WIDTH:0.650974
G1 F3000
G1 X132.718 Y133.569 E.02946
;WIDTH:0.68485
G1 X132.773 Y133.555 E.00302
G2 X133.264 Y133.36 I-1.014 J-3.27 E.02761
G2 X133.634 Y133.128 I-1.123 J-2.201 E.0229
G1 E-.73867 F1800
;WIPE_START
G1 F30000
G1 X133.264 Y133.36 E-.02623
G1 X132.773 Y133.555 E-.03164
G1 X132.718 Y133.569 E-.00347
;WIPE_END
G1 X131.631 Y133.885 Z.6
G1 Z.2
G1 E.8 F1800
;WIDTH:0.138886
G1 F3000
G1 X131.631 Y136.785 E.02268
G1 E-.728 F1800
;WIPE_START
G1 F30000
G1 X131.631 Y135.585 E-.072
;WIPE_END
G1 X132.834 Y128.048 Z.6
G1 X133.359 Y124.761 Z.6
G1 Z.2
G1 E.8 F1800
;WIDTH:0.679215
G1 F3000
G1 X133.324 Y124.333 E.02226
G2 X132.706 Y124.078 I-3.117 J6.672 E.03467
;WIDTH:0.641178
G2 X131.52 Y123.93 I-1.066 J3.723 E.05853
;WIDTH:0.607241
G2 X130.914 Y123.982 I.18 J5.589 E.02798
;WIDTH:0.612816
G1 X130.757 Y124.013 E.00741
;WIDTH:0.640918
G2 X130.305 Y124.143 I.5 J2.583 E.02295
;WIDTH:0.653565
G1 X130.046 Y124.26 E.01411
;WIDTH:0.698287
G1 X129.768 Y124.386 E.0163
G1 X129.321 Y124.294 E.02439
G1 E-.75428 F1800
;WIPE_START
G1 F30000
G1 X129.768 Y124.386 E-.0274
G1 X130.046 Y124.26 E-.01831
;WIPE_END
G1 X131.805 Y122.062 Z.6
G1 Z.2
G1 E.8 F1800
;TYPE:Outer wall
;WIDTH:0.5
G1 F3000
G2 X131.041 Y121.496 I-8.931 J11.241 E.03541
G1 X129.765 Y120.922 E.05212
G1 X128.2 Y120.495 E.06041
G2 X124.728 Y120.49 I-1.749 J9.11 E.13008
G1 X123.179 Y120.907 E.05976
G1 X121.892 Y121.475 E.05238
G2 X121.088 Y122.063 I6.292 J9.456 E.03713
G3 X119.994 Y122.126 I-.999 J-7.915 E.04085
G3 X120.763 Y121.443 I2.054 J1.54 E.03859
G2 X121.517 Y120.952 I-4.352 J-7.499 E.0335
G1 X122.281 Y120.537 E.03239
G1 X123.211 Y120.16 E.03739
G1 X124.178 Y119.889 E.0374
G1 X125.305 Y119.705 E.04252
G1 X126.459 Y119.649 E.04303
G1 X127.223 Y119.686 E.0285
G1 X127.594 Y119.704 E.01384
G1 X128.726 Y119.889 E.0427
G1 X129.692 Y120.16 E.03739
G1 X130.623 Y120.537 E.03739
G1 X131.384 Y120.951 E.0323
G2 X132.432 Y121.632 I13.297 J-19.32 E.04654
G3 X132.899 Y122.126 I-1.5 J1.885 E.0254
G3 X131.844 Y122.067 I-.076 J-8.143 E.03937
G1 X132.316 Y121.858 F30000
;TYPE:Gap infill
;WIDTH:0.253939
G1 F3000
G1 X131.939 Y121.729 E.00684
G1 X131.216 Y121.225 E.01516
;WIDTH:0.227907
G1 X131.194 Y121.212 E.00038
;WIDTH:0.242812
G1 X130.833 Y121.034 E.00656
;WIDTH:0.277454
G2 X129.576 Y120.499 I-4.478 J8.788 E.02612
;WIDTH:0.282519
G2 X123.327 Y120.498 I-3.127 J9.543 E.12407
G2 X122.431 Y120.854 I1.932 J6.162 E.01884
;WIDTH:0.27178
G1 X122.086 Y121.023 E.00716
;WIDTH:0.238958
G2 X121.33 Y121.476 I1.18 J2.83 E.01414
G1 X121.094 Y121.633 E.00453
;WIDTH:0.26999
G1 X120.952 Y121.731 E.00319
G1 X120.583 Y121.859 E.00723
G1 E-.76621 F1800
;WIPE_START
G1 F30000
G1 X120.952 Y121.731 E-.02346
G1 X121.094 Y121.633 E-.01033
;WIPE_END
G1 X118.564 Y128.834 Z.6
G1 X115.68 Y137.043 Z.6
G1 Z.2
G1 E.8 F1800
;TYPE:Inner wall
;WIDTH:0.5
G1 F3000
G1 X115.664 Y137.041 E.00061
G1 X114.969 Y136.748 E.02808
G1 X116.661 Y135.966 E.06942
G1 X117.314 Y135.501 E.02985
G1 X118.634 Y135.501 E.04918
G1 X118.481 Y135.868 E.0148
G1 X118.083 Y136.385 E.0243
G1 X117.57 Y136.786 E.02425
G1 X116.97 Y137.041 E.02426
G1 X116.321 Y137.124 E.02438
G1 X115.72 Y137.048 E.02256
G1 E-.728 F1800
;WIPE_START
G1 F30000
G1 X115.664 Y137.041 E-.00338
G1 X114.969 Y136.748 E-.04524
G1 X115.323 Y136.584 E-.02338
;WIPE_END
G1 X114.966 Y136.246 Z.6
G1 Z.2
G1 E.8 F1800
;TYPE:Outer wall
G1 F3000
G1 X114.504 Y135.651 E.02806
G1 X114.291 Y135.141 E.02057
G1 X114.224 Y134.595 E.0205
G1 X114.294 Y134.048 E.02053
G1 X114.505 Y133.549 E.02018
G1 X114.835 Y133.126 E.02
G1 X115.262 Y132.798 E.02007
G1 X115.767 Y132.587 E.02037
G1 X116.322 Y132.517 E.02083
G1 X116.869 Y132.587 E.02054
G1 X117.367 Y132.798 E.02017
G1 X117.791 Y133.126 E.01995
G1 X118.119 Y133.55 E.01995
G1 X118.33 Y134.048 E.02017
G1 X118.4 Y134.595 E.02053
G1 X118.344 Y135.044 E.01686
G1 X117.168 Y135.044 E.04382
G1 X116.431 Y135.569 E.0337
G1 X115.003 Y136.229 E.05859
G1 E-.728 F1800
;WIPE_START
G1 F30000
G1 X114.504 Y135.651 E-.0458
G1 X114.336 Y135.248 E-.0262
;WIPE_END
G1 X113.928 Y136.542 Z.6
G1 Z.2
